X:1
T:Title
%%score { ( 1 3 ) | ( 2 4 ) }
L:1/8
Q:1/4=100
M:4/4
K:F
V:1 treble nm="Grand Piano"
V:3 treble 
V:2 bass 
V:4 bass 
V:1
 [A,C]2 [A,D]2 [A,E]2 [A,F]2 | z4 [FA]4[K:bass] | c>B [EB]>A [EB]4 | z4 [FAc]4[K:bass] | %4
w: Ira~B.~Wilson * * *||||
 [A,C]2[K:treble] [A,D]2 [A,E]2 [A,F]2 | z4 z2 A2 | [EG]2 [Ge]2 [Ge]2 [Fd]2 | %7
w: |||
 c2 (3[Cc][Cc][Cc] [Cc]2 [Cc]2 | [FAd]4 [FAc]4 | [EBd]4 [EBc]4 | [CFA]2 [CFA]2 [CFB]2 [CFA]2 | %11
w: ||||
 [DFG]6[K:bass] z2 | [Ec]4 [F=B]4 | [CGB]4 [CFA]4 | [CEG]2 G2 [^FA]2 [=F=B]2 | %15
w: ||||
 c2 (3[Cc][Cc][Cc] [Cc]2 [Cc]2 | [FAd]4 [FAc]4 | [EBd]4 [EBc]4 | [CFA]2 [CFA]2 [B,FB]2 [CFA]2 | %19
w: ||||
 [DFG]6[K:bass] z2 | [F_Ad]3 [FAd] [FAe]2 [FAd]2 | [FAd]2 [CFA]2 [C^FB]2 [CFA]2 | %22
w: |||
 z4 [_B,EG]4[K:bass] | [A,CF]6 z2 |] %24
w: ||
V:2
 [F,,F,]2 [C,,C,]2 [F,,F,]2 [C,,C,]2 | [F,,F,]2 [C,,C,]2 [F,,F,]2 C,,2 | %2
 [G,E]2 [C,,C,]2 [G,,G,]2 [C,,C,]2 | [F,,F,]2 z z/[K:treble] =B/[K:bass] F,2 C,,2 | %4
 [F,,F,]2 [C,,C,]2 [F,,F,]2 C,,2 | z z/ _A/ [C,,C,]2 [F,,F,]2 [^F,,^F,]2 | %6
 [G,,G,]2 [G,,G,]2 [A,,A,]2 [=B,,=B,]2 | [C,C]2 [B,,B,]2 [A,,A,]2 [G,,G,]2 | %8
 [F,,F,]2 [C,,C,]2 [F,,F,]2 [C,,C,]2 | [G,,G,]2 [C,,C,]2 [G,,G,]2 [C,,C,]2 | %10
 [F,,F,]2 [_E,,_E,]2 [D,,D,]2 [C,,C,]2 | [B,,,B,,]2 G,,,2 A,,,2 B,,,2 | %12
 [C,,C,]2 [C,,C,]2 [D,,D,]2 [D,,D,]2 | [E,,E,]2 [E,,E,]2 [F,,F,]2 [F,,F,]2 | %14
 [G,,G,]2 [=B,,=B,]2 [A,,A,]2 [G,,G,]2 | [C,C]2 [B,,B,]2 [A,,A,]2 [A,,G,]2 | %16
 [F,,F,]2 [C,,C,]2 [F,,F,]2 [C,,C,]2 | [G,,G,]2 [C,,C,]2 [G,,G,]2 [C,,C,]2 | %18
 [F,,F,]2 [_E,,_E,]2 [D,,D,]2 [C,,C,]2 | [B,,,B,,]2 G,,,2 A,,,2 B,,,2 | [=B,,,=B,,]4 [B,,,B,,]4 | %21
 [C,,C,]4 [D,,D,]4 | [G,,G,]2 [G,,G,]2 [C,,C,]2 C,,2 | F,,2 C,2 F,,2 z2 |] %24
V:3
 x8 | [FA]>_A [F=A]>d z2[K:bass] C,2 | x8 | [FAd]>c [FAc]2 z2[K:bass] C,2 | x2[K:treble] x6 | %5
 [FA]2 [FA]>d [FA]2 _E->[EA] | x8 | E6 z2 | x8 | x8 | x8 | z2[K:bass] G,,2 A,,2 B,,2 | x8 | x8 | %14
 x8 | E6 z2 | x8 | x8 | x8 | z2[K:bass] G,,2 A,,2 B,,2 | x8 | x8 | [=B,FA]4 z2[K:bass] C,2 | %23
 F,2 z2 z4 |] %24
V:4
 x8 | x8 | x8 | z2 [C,,C,]2[K:treble][K:bass] z4 | x8 | F,,2 z2 z4 | x8 | x8 | x8 | x8 | x8 | x8 | %12
 x8 | x8 | x8 | x8 | x8 | x8 | x8 | x8 | x8 | x8 | x8 | x8 |] %24

